X:113
T:Innocent Hare
R:jig
M:6/8
L:1/8
K:D
A |:d2 d e2 e | f2 f g2 g | a2 adef |1 e2 e d2 A:|2 e2 e d2 f|
  | gbg e2 d | c2 B A2  f | gbg e2 d | c2 B A2 A | 
  |d2 d e2 e | f2 f g2 g | a2 adef | e2 e d3 |
